svgs/sharp-light/circle-yen.svg

<svg xmlns="http://www.w3.org/2000/svg" viewBox="0 0 512 512"><!--! Font Awesome Pro 6.6.0 by @fontawesome - https://fontawesome.com License - https://fontawesome.com/license (Commercial License) Copyright 2024 Fonticons, Inc. --><path d="M480 256A224 224 0 1 0 32 256a224 224 0 1 0 448 0zM0 256a256 256 0 1 1 512 0A256 256 0 1 1 0 256zM152.3 144l41 0L256 222.4 318.7 144l41 0-89 111.2 1.3 0 0 .8 48 0 16 0 0 32-16 0-48 0 0 32 48 0 16 0 0 32-16 0-48 0 0 17 0 16-32 0 0-16 0-17-48 0-16 0 0-32 16 0 48 0 0-32-48 0-16 0 0-32 16 0 48 0 0-.8 1.3 0L152.3 144z"/></svg>

<svg xmlns="http://www.w3.org/2000/svg" viewBox="0 0 512 512"><!--! Font Awesome Pro 6.4.0 by @fontawesome - https://fontawesome.com License - https://fontawesome.com/license (Commercial License) Copyright 2023 Fonticons, Inc. --><path d="M480 256A224 224 0 1 0 32 256a224 224 0 1 0 448 0zM0 256a256 256 0 1 1 512 0A256 256 0 1 1 0 256zM152.3 144h41L256 222.4 318.7 144h41l-89 111.2H272v.8h48 16v32H320 272v32h48 16v32H320 272v17 16H240V369 352H192 176V320h16 48V288H192 176V256h16 48v-.8h1.3L152.3 144z"/></svg>
